X:7672
T:Trip to Herv's
O:england
M:4/4
L:1/8
C:Michael McGoldrick
S:Jesse Smith
R:Reel
K:D
FAAF ABde | f2af dafd | B2dB AFDE | FE E/2E/2E E3G |
FAAF ABde | f2af dafd | B2dB AFDF |1 E3D D2GE :|2 E3D D2dc |:
B3c dcBA | F2FE FGFE | DEFG (3ABA DE | FGA2 FGAd |1
B3c dcBA | F2FE FGFE | DEFG ABAG | F2EG FDdc :|2
B2 FA2E F2 | DE-ED EFGA | B2 FA2E F2 | DE-ED EFGE ||
